src/assets/duotone/SunFog.svg

<svg width="24" height="24" viewBox="0 0 24 24"  xmlns="http://www.w3.org/2000/svg">
<path d="M18.4802 12.25C18.7602 12.25 19.0002 12.01 18.9802 11.73C18.7102 8.11 15.6902 5.25 12.0002 5.25C8.31019 5.25 5.29021 8.1 5.02021 11.73C5.00021 12.01 5.24021 12.25 5.52021 12.25H18.4802Z" />
<path d="M22 13H21.92C21.37 13 20.92 12.55 20.92 12C20.92 11.45 21.37 11 21.92 11C22.47 11 22.96 11.45 22.96 12C22.96 12.55 22.55 13 22 13ZM2.08002 13H2C1.45 13 1 12.55 1 12C1 11.45 1.45 11 2 11C2.55 11 3.03998 11.45 3.03998 12C3.03998 12.55 2.63002 13 2.08002 13ZM19.01 5.99001C18.75 5.99001 18.5 5.89 18.3 5.7C17.91 5.31 17.91 4.67999 18.3 4.28999L18.43 4.16C18.82 3.77 19.45 3.77 19.84 4.16C20.23 4.55 20.23 5.18001 19.84 5.57001L19.71 5.7C19.52 5.89 19.27 5.99001 19.01 5.99001ZM4.98999 5.99001C4.72999 5.99001 4.48003 5.89 4.28003 5.7L4.15002 5.57001C3.76002 5.18001 3.76002 4.55 4.15002 4.16C4.54002 3.77 5.17 3.77 5.56 4.16L5.69 4.28999C6.08 4.67999 6.08 5.31 5.69 5.7C5.5 5.89 5.23999 5.99001 4.98999 5.99001ZM12 3.03999C11.45 3.03999 11 2.63 11 2.08V2C11 1.45 11.45 1 12 1C12.55 1 13 1.45 13 2C13 2.55 12.55 3.03999 12 3.03999Z" />
<path opacity="0.4" d="M20 15.75H4C3.59 15.75 3.25 15.41 3.25 15C3.25 14.59 3.59 14.25 4 14.25H20C20.41 14.25 20.75 14.59 20.75 15C20.75 15.41 20.41 15.75 20 15.75Z" />
<path opacity="0.4" d="M18 18.75H6C5.59 18.75 5.25 18.41 5.25 18C5.25 17.59 5.59 17.25 6 17.25H18C18.41 17.25 18.75 17.59 18.75 18C18.75 18.41 18.41 18.75 18 18.75Z" />
<path opacity="0.4" d="M15 21.75H9C8.59 21.75 8.25 21.41 8.25 21C8.25 20.59 8.59 20.25 9 20.25H15C15.41 20.25 15.75 20.59 15.75 21C15.75 21.41 15.41 21.75 15 21.75Z" />
</svg>

<?xml version="1.0" encoding="UTF-8"?>
<svg width="24" height="24" viewBox="0 0 24 24" xmlns="http://www.w3.org/2000/svg">
 <path d="m18.48 12.25c0.28 0 0.52-0.24 0.5-0.52-0.27-3.62-3.29-6.48-6.98-6.48-3.69 0-6.71 2.85-6.98 6.48-0.02 0.28 0.22 0.52 0.5 0.52h12.96z"/>
 <path d="m22 13h-0.08c-0.55 0-1-0.45-1-1s0.45-1 1-1 1.04 0.45 1.04 1-0.41 1-0.96 1zm-19.92 0h-0.08002c-0.55 0-1-0.45-1-1s0.45-1 1-1 1.04 0.45 1.04 1-0.40996 1-0.95996 1zm16.93-7.01c-0.26 0-0.51-0.10001-0.71-0.29001-0.39-0.39-0.39-1.02 0-1.41l0.13-0.12999c0.39-0.39 1.02-0.39 1.41 0s0.39 1.02 0 1.41l-0.13 0.12999c-0.19 0.19-0.44 0.29001-0.7 0.29001zm-14.02 0c-0.26 0-0.50996-0.10001-0.70996-0.29001l-0.13001-0.12999c-0.39-0.39-0.39-1.02 0-1.41s1.02-0.39 1.41 0l0.13 0.12999c0.39 0.39 0.39 1.02 0 1.41-0.19 0.19-0.45001 0.29001-0.70001 0.29001zm7.01-2.95c-0.55 0-1-0.40999-1-0.95999v-0.08c0-0.55 0.45-1 1-1s1 0.45 1 1-0.45 1.04-1 1.04z"/>
 <path d="m20 15.75h-16c-0.41 0-0.75-0.34-0.75-0.75s0.34-0.75 0.75-0.75h16c0.41 0 0.75 0.34 0.75 0.75s-0.34 0.75-0.75 0.75z" opacity=".4"/>
 <path d="m18 18.75h-12c-0.41 0-0.75-0.34-0.75-0.75s0.34-0.75 0.75-0.75h12c0.41 0 0.75 0.34 0.75 0.75s-0.34 0.75-0.75 0.75z" opacity=".4"/>
 <path d="m15 21.75h-6c-0.41 0-0.75-0.34-0.75-0.75s0.34-0.75 0.75-0.75h6c0.41 0 0.75 0.34 0.75 0.75s-0.34 0.75-0.75 0.75z" opacity=".4"/>
</svg>
